src/16/panel/workrave-indicator-quiet.svg

<svg xmlns="http://www.w3.org/2000/svg" width="16" height="16" version="1">
 <defs>
  <style id="current-color-scheme" type="text/css">
   .ColorScheme-Text { color:#dfdfdf; } .ColorScheme-Highlight { color:#4285f4; }
  </style>
 </defs>
 <path style="fill:currentColor" class="ColorScheme-Text" d="M 8,1 C 5.7909,1 4,2.7909 4,5 4,7.2091 5.7909,9 8,9 10.209,9 12,7.2091 12,5 12,2.7909 10.209,1 8,1 Z M 7,3 H 9 V 4 H 10 V 6 H 9 V 7 H 7 V 6 H 6 V 4 H 7 Z M 11.494,9.9941 C 11.045,9.9942 10.824,10.541 11.146,10.854 L 12.793,12.5 11.146,14.146 C 10.656,14.618 11.382,15.344 11.854,14.854 L 13.5,13.207 15.146,14.854 C 15.618,15.344 16.344,14.618 15.854,14.146 L 14.207,12.5 15.854,10.854 C 16.179,10.536 15.945,9.9836 15.49,9.9961 15.36,9.9997 15.237,10.054 15.146,10.146 L 13.5,11.793 11.854,10.146 C 11.759,10.049 11.63,9.9941 11.494,9.9941 Z M 8,10 C -4e-4,10.004 1,15 1,15 H 10.074 C 10.027,14.868 9.9921,14.729 9.9844,14.576 9.9636,14.169 10.149,13.718 10.453,13.426 L 11.379,12.5 10.451,11.572 C 10.055,11.189 9.9406,10.62 10.055,10.137 9.4308,10.055 8.7622,9.9996 8,10 Z"/>
</svg>

<svg xmlns="http://www.w3.org/2000/svg" width="16" height="16" version="1"><defs><style id="current-color-scheme" type="text/css">.ColorScheme-Text{color:#dfdfdf;}.ColorScheme-Highlight{color:#5294e2;}</style></defs><defs><style id="current-color-scheme" type="text/css"></style></defs><path d="M8 1a4 4 0 1 0 0 8 4 4 0 0 0 0-8zM7 3h2v1h1v2H9v1H7V6H6V4h1zm4.494 6.994a.5.5 0 0 0-.348.86l1.647 1.646-1.647 1.646c-.49.472.236 1.198.708.708l1.646-1.647 1.646 1.647c.472.49 1.198-.236.708-.708L14.207 12.5l1.647-1.646a.5.5 0 1 0-.708-.708L13.5 11.793l-1.646-1.647a.503.503 0 0 0-.36-.152zM8 10c-8 .004-7 5-7 5h9.074a1.47 1.47 0 0 1-.09-.424c-.02-.407.165-.858.469-1.15l.926-.926-.928-.928c-.396-.383-.51-.952-.396-1.435A15.452 15.452 0 0 0 8 10z" fill="currentColor" class="ColorScheme-Text"/></svg>
